src/assets/icons/article.svg

<svg width="20" height="20" viewBox="0 0 20 20" fill="none" xmlns="http://www.w3.org/2000/svg">
<path d="M6.66667 7.4987C6.20643 7.4987 5.83333 7.87179 5.83333 8.33203C5.83333 8.79227 6.20643 9.16537 6.66667 9.16537H13.3333C13.7936 9.16537 14.1667 8.79227 14.1667 8.33203C14.1667 7.87179 13.7936 7.4987 13.3333 7.4987H6.66667Z" fill="#D87558"/>
<path d="M6.66667 10.832C6.20643 10.832 5.83333 11.2051 5.83333 11.6654C5.83333 12.1256 6.20643 12.4987 6.66667 12.4987H10C10.4602 12.4987 10.8333 12.1256 10.8333 11.6654C10.8333 11.2051 10.4602 10.832 10 10.832H6.66667Z" fill="#D87558"/>
<path d="M6.66667 14.1654C6.20643 14.1654 5.83333 14.5385 5.83333 14.9987C5.83333 15.4589 6.20643 15.832 6.66667 15.832H13.3333C13.7936 15.832 14.1667 15.4589 14.1667 14.9987C14.1667 14.5385 13.7936 14.1654 13.3333 14.1654H6.66667Z" fill="#D87558"/>
<path fill-rule="evenodd" clip-rule="evenodd" d="M17.399 4.28002C17.3319 4.11771 17.2335 3.97025 17.1093 3.84611L14.4863 1.22314C14.2365 0.973023 13.8976 0.832343 13.5441 0.832031H3.83333C3.47971 0.832031 3.14057 0.972507 2.89052 1.22256C2.64048 1.4726 2.5 1.81174 2.5 2.16536V17.832C2.5 18.0071 2.53449 18.1805 2.60149 18.3423C2.6685 18.504 2.76671 18.651 2.89052 18.7748C3.01433 18.8987 3.16132 18.9969 3.32309 19.0639C3.48486 19.1309 3.65824 19.1654 3.83333 19.1654H16.1667C16.3418 19.1654 16.5151 19.1309 16.6769 19.0639C16.8387 18.9969 16.9857 18.8987 17.1095 18.7748C17.2333 18.651 17.3315 18.504 17.3985 18.3423C17.4655 18.1805 17.5 18.0071 17.5 17.832V4.79062L16.6667 4.79036L17.5 4.79241L17.5 4.79062C17.5002 4.61544 17.4659 4.44193 17.399 4.28002ZM12.5 4.58203C12.5 5.27239 13.0596 5.83203 13.75 5.83203H15.8333V17.4987H4.16667V2.4987H12.5V4.58203ZM15.0715 4.16536L14.1667 3.26054V4.16536H15.0715Z" fill="#D87558"/>
</svg>

<svg xmlns="http://www.w3.org/2000/svg" width="20" height="20" fill="none"><path fill="#D87558" d="M6.667 7.499a.833.833 0 1 0 0 1.666h6.666a.833.833 0 1 0 0-1.666zM6.667 10.832a.833.833 0 0 0 0 1.667H10a.833.833 0 0 0 0-1.667zM6.667 14.165a.833.833 0 1 0 0 1.667h6.666a.833.833 0 1 0 0-1.667z"/><path fill="#D87558" fill-rule="evenodd" d="M17.399 4.28a1.3 1.3 0 0 0-.29-.434l-2.623-2.623c-.25-.25-.588-.39-.942-.391h-9.71A1.333 1.333 0 0 0 2.5 2.165v15.667a1.334 1.334 0 0 0 1.333 1.333h12.334a1.333 1.333 0 0 0 1.333-1.333V4.791h-.833l.833.001v-.001c0-.176-.034-.35-.101-.511m-4.899.302c0 .69.56 1.25 1.25 1.25h2.083v11.667H4.167v-15H12.5zm2.572-.417-.905-.904v.904z" clip-rule="evenodd"/></svg>
